img/client-portal-white.svg

<?xml version="1.0" encoding="UTF-8"?>
<svg width="118px" height="40px" viewBox="0 0 118 40" version="1.1" xmlns="http://www.w3.org/2000/svg" xmlns:xlink="http://www.w3.org/1999/xlink">
    <!-- Generator: Sketch 43.2 (39069) - http://www.bohemiancoding.com/sketch -->
    <title>logo</title>
    <desc>Created with Sketch.</desc>
    <defs></defs>
    <g id="Page-1" stroke="none" stroke-width="1" fill="none" fill-rule="evenodd">
        <g id="01_iLabs-Work-Copy" transform="translate(-661.000000, -373.000000)" fill="#FFFFFF">
            <g id="Group-7" transform="translate(180.000000, 293.000000)">
                <g id="1-copy-3" transform="translate(380.000000, 0.000000)">
                    <g id="logo" transform="translate(101.000000, 80.000000)">
                        <path d="M36.1866706,24.9756012 C32.4335626,24.9756012 29.3688666,21.9453372 29.3688666,18.2144282 C29.3688666,14.4836364 32.4172786,11.4532551 36.1866706,11.4532551 C39.9560626,11.4532551 42.9880726,14.4836364 42.9880726,18.2144282 C42.9880726,21.9453372 39.9397786,24.9756012 36.1866706,24.9756012 M36.1866706,7.24997067 C30.1063666,7.24997067 25.1569746,12.170088 25.1569746,18.2144282 C25.1569746,24.2587683 30.1063666,29.1788856 36.1866706,29.1788856 C42.2669746,29.1788856 47.2163666,24.2587683 47.2163666,18.2144282 C47.2163666,12.170088 42.2669746,7.24997067 36.1866706,7.24997067" id="Fill-1"></path>
                        <path d="M102.08639,18.2470264 C102.08639,11.9420411 96.6943802,6.87529619 90.2535862,7.34767155 C84.8780962,7.75506158 80.5513902,12.0560587 80.1416942,17.399871 C79.6663902,23.8025689 84.7632822,29.1626862 91.1057822,29.1626862 L94.7277922,29.1626862 L94.9244982,29.1626862 C95.2357822,29.1626862 95.4816942,28.9182287 95.4816942,28.6086686 L95.4816942,25.5131848 C95.4816942,25.2037419 95.2357822,24.9592845 94.9244982,24.9592845 L94.7277922,24.9592845 L91.2369982,24.9592845 C87.6805962,24.9592845 84.6157822,22.2711906 84.3535862,18.752129 C84.0421842,14.8256774 87.1888902,11.5184633 91.1057822,11.5184633 C94.8424882,11.5184633 97.8744982,14.5324223 97.8744982,18.2470264 L97.8744982,28.6249736 C97.8744982,28.9345337 98.1202922,29.1788739 98.4316942,29.1788739 L101.545596,29.1788739 C101.856998,29.1788739 102.102792,28.9345337 102.102792,28.6249736 L102.08639,18.2470264 Z" id="Fill-3"></path>
                        <path d="M76.4541588,7.42917302 L71.0130608,7.42917302 L71.0130608,0.553982405 C71.0130608,0.244422287 70.7672668,8.21114372e-05 70.4558648,8.21114372e-05 L67.3419628,8.21114372e-05 C67.0305608,8.21114372e-05 66.7847668,0.244422287 66.7847668,0.553982405 L66.7847668,21.0003167 C66.7847668,25.4480587 70.3738548,29.0811378 74.8316588,29.1789677 L76.4541588,29.1789677 C76.7655608,29.1789677 77.0113548,28.9345103 77.0113548,28.6249501 L77.0113548,25.5295836 C77.0113548,25.2200235 76.7655608,24.975566 76.4541588,24.975566 L74.9463548,24.975566 C72.7666588,24.9430733 71.0130608,23.1672375 71.0130608,21.0003167 L71.0130608,11.6161525 L76.4541588,11.6161525 C76.7655608,11.6161525 77.0113548,11.3718123 77.0113548,11.0622522 L77.0113548,7.96676833 C76.9949528,7.6735132 76.7491588,7.42917302 76.4541588,7.42917302" id="Fill-5"></path>
                        <path d="M117.442769,24.9918944 L114.820573,24.9918944 C112.608073,25.0408094 110.788867,23.2812786 110.739661,21.0981701 L110.739661,0.619108504 C110.739661,0.309548387 110.493867,0.0652082111 110.182465,0.0652082111 L107.068563,0.0652082111 C106.757161,0.0652082111 106.511367,0.309548387 106.511367,0.619108504 L106.511367,21.1795777 C106.609661,25.6273196 110.280759,29.1788739 114.738563,29.1788739 L114.771367,29.1788739 L117.426367,29.1788739 C117.737769,29.1788739 117.983563,28.9345337 117.983563,28.6249736 L117.983563,25.5294897 C117.999965,25.2362346 117.754171,24.9918944 117.442769,24.9918944" id="Fill-7"></path>
                        <path d="M11.8327804,7.29882698 C5.3919864,6.82633431 -2.35999996e-05,11.8931965 -2.35999996e-05,18.1981818 L-2.35999996e-05,39.377654 C-2.35999996e-05,39.6872141 0.2458884,39.9315543 0.5571724,39.9315543 L3.6710744,39.9315543 C3.9824764,39.9315543 4.2283884,39.6872141 4.2283884,39.377654 L4.2283884,18.1981818 C4.2283884,14.4835777 7.2602804,11.4696188 10.9969864,11.4696188 C14.8974764,11.4696188 18.0441824,14.7768328 17.7491824,18.7194721 C17.4869864,22.2548387 14.4221724,24.9267449 10.8658884,24.9267449 L7.1783884,24.9267449 C6.8669864,24.9267449 6.6210744,25.171085 6.6210744,25.4806452 L6.6210744,28.576129 C6.6210744,28.8856891 6.8669864,29.1300293 7.1783884,29.1300293 L7.3749764,29.1300293 L11.0133884,29.1300293 C17.3558884,29.1300293 22.4527804,23.7700293 21.9774764,17.3672141 C21.5349764,12.0072141 17.2083884,7.70609971 11.8327804,7.29882698" id="Fill-9"></path>
                        <path d="M62.1302804,7.31513196 L61.9335744,7.31513196 C60.2946724,7.34774194 58.7377804,7.72240469 57.3446724,8.39043988 C53.8866824,10.0358358 51.3955844,13.4408798 51.1005844,17.416129 C51.0841824,17.7093842 51.0677804,28.608739 51.0677804,28.608739 C51.0677804,28.9182991 51.3135744,29.1626393 51.6249764,29.1626393 L54.7388784,29.1626393 C55.0502804,29.1626393 55.2960744,28.9182991 55.2960744,28.608739 C55.2960744,28.608739 55.3124764,18.393607 55.3124764,18.2632845 C55.3124764,14.5487977 58.3444864,11.5184164 62.0810744,11.5021114 L62.1466824,11.5021114 C62.4580844,11.5021114 62.7038784,11.2577713 62.7038784,10.9482111 L62.7038784,7.85272727 C62.6874764,7.55947214 62.4416824,7.31513196 62.1302804,7.31513196" id="Fill-12"></path>
                    </g>
                </g>
            </g>
        </g>
    </g>
</svg>

<svg width="118" height="40" viewBox="0 0 118 40" xmlns="http://www.w3.org/2000/svg"><title>logo</title><path d="M36.187 24.976c-3.753 0-6.818-3.03-6.818-6.762 0-3.73 3.048-6.76 6.818-6.76 3.77 0 6.801 3.03 6.801 6.76 0 3.731-3.048 6.762-6.801 6.762m0-17.726c-6.08 0-11.03 4.92-11.03 10.964 0 6.045 4.95 10.965 11.03 10.965 6.08 0 11.03-4.92 11.03-10.965 0-6.044-4.95-10.964-11.03-10.964m65.899 10.997c0-6.305-5.392-11.372-11.832-10.9-5.376.408-9.703 4.71-10.112 10.053-.476 6.403 4.621 11.763 10.964 11.763h3.818a.551.551 0 0 0 .558-.554v-3.096a.551.551 0 0 0-.558-.554h-3.687c-3.556 0-6.621-2.688-6.883-6.207-.312-3.926 2.835-7.234 6.752-7.234 3.736 0 6.768 3.014 6.768 6.729v10.378c0 .31.246.554.558.554h3.114a.55.55 0 0 0 .557-.554l-.017-10.378zM76.454 7.43h-5.44V.553A.55.55 0 0 0 70.455 0h-3.114a.55.55 0 0 0-.557.554V21c0 4.448 3.589 8.081 8.047 8.179h1.622a.551.551 0 0 0 .557-.554V25.53a.551.551 0 0 0-.557-.554h-1.508c-2.18-.033-3.933-1.809-3.933-3.976v-9.384h5.441a.55.55 0 0 0 .557-.554V7.967a.57.57 0 0 0-.557-.538m40.99 17.563h-2.622a3.995 3.995 0 0 1-4.081-3.894V.62a.55.55 0 0 0-.558-.554h-3.113a.55.55 0 0 0-.558.554v20.56c.099 4.448 3.77 8 8.228 8h2.687a.55.55 0 0 0 .558-.554V25.53c.016-.293-.23-.537-.541-.537M11.833 7.299C5.392 6.826 0 11.893 0 18.199v21.179c0 .31.246.554.557.554h3.114a.551.551 0 0 0 .557-.554v-21.18c0-3.714 3.032-6.728 6.769-6.728 3.9 0 7.047 3.307 6.752 7.25-.262 3.535-3.327 6.207-6.883 6.207H7.178a.551.551 0 0 0-.557.554v3.095c0 .31.246.554.557.554h3.835c6.343 0 11.44-5.36 10.964-11.763-.442-5.36-4.769-9.66-10.144-10.068m50.297.016h-.196a11.098 11.098 0 0 0-4.59 1.075c-3.457 1.646-5.948 5.05-6.243 9.026-.017.293-.033 11.193-.033 11.193 0 .31.246.554.557.554h3.114a.55.55 0 0 0 .557-.554l.016-10.346c0-3.714 3.032-6.745 6.77-6.76h.065a.55.55 0 0 0 .557-.555V7.853a.573.573 0 0 0-.574-.538" fill="#FFF" fill-rule="evenodd"/></svg>
